X:1
T:A New Loyal Song Against Home Rule
M:6/8
L:1/8
K:F
 G/2G/2| ADDD-c E| EDD D2d/2-e/2| fed edc| A_Bc d2 d| edc dcA| GFE F2 G/2G/2|\
 ADD DcE| EED D2||
